packages/icons/svg/24/FormatAlignLeft.svg

<svg width="24" height="24" fill="none" xmlns="http://www.w3.org/2000/svg" viewBox="0 0 24 24"><path fill-rule="evenodd" clip-rule="evenodd" d="M14 15H4c-.55 0-1 .45-1 1s.45 1 1 1h10c.55 0 1-.45 1-1s-.45-1-1-1zM14 7H4c-.55 0-1 .45-1 1s.45 1 1 1h10c.55 0 1-.45 1-1s-.45-1-1-1zM4 13h16c.55 0 1-.45 1-1s-.45-1-1-1H4c-.55 0-1 .45-1 1s.45 1 1 1zM4 21h16c.55 0 1-.45 1-1s-.45-1-1-1H4c-.55 0-1 .45-1 1s.45 1 1 1zM3 4c0 .55.45 1 1 1h16c.55 0 1-.45 1-1s-.45-1-1-1H4c-.55 0-1 .45-1 1z" fill="currentColor"></path></svg>

<svg width="24" height="24" viewBox="0 0 24 24" fill="none" xmlns="http://www.w3.org/2000/svg">
<path fill-rule="evenodd" clip-rule="evenodd" d="M14 15H4C3.45 15 3 15.45 3 16C3 16.55 3.45 17 4 17H14C14.55 17 15 16.55 15 16C15 15.45 14.55 15 14 15Z" fill="#858585"/>
<path fill-rule="evenodd" clip-rule="evenodd" d="M14 7H4C3.45 7 3 7.45 3 8C3 8.55 3.45 9 4 9H14C14.55 9 15 8.55 15 8C15 7.45 14.55 7 14 7Z" fill="#858585"/>
<path fill-rule="evenodd" clip-rule="evenodd" d="M4 13H20C20.55 13 21 12.55 21 12C21 11.45 20.55 11 20 11H4C3.45 11 3 11.45 3 12C3 12.55 3.45 13 4 13Z" fill="#858585"/>
<path fill-rule="evenodd" clip-rule="evenodd" d="M4 21H20C20.55 21 21 20.55 21 20C21 19.45 20.55 19 20 19H4C3.45 19 3 19.45 3 20C3 20.55 3.45 21 4 21Z" fill="#858585"/>
<path fill-rule="evenodd" clip-rule="evenodd" d="M3 4C3 4.55 3.45 5 4 5H20C20.55 5 21 4.55 21 4C21 3.45 20.55 3 20 3H4C3.45 3 3 3.45 3 4Z" fill="#858585"/>
</svg>
